testdata/csp/oliverbug/luts/LC3DL_Kodak2383_Sony_GDM.3dl
#Tokens required by applications - do not edit
3DMESH
Mesh 4 12
0 64 128 192 256 320 384 448 512 576 640 704 768 832 896 960 1023
0 17 17
0 0 88
0 0 157
9 101 197
0 118 308
0 171 416
0 238 567
0 321 742
0 409 923
81 497 1082
0 560 1243
0 608 1370
0 644 1461
0 666 1517
0 680 1551
0 728 1579
0 771 1666
38 107 76
40 103 110
29 110 163
0 122 250
0 151 337
27 197 440
0 262 590
65 354 760
73 446 951
0 524 1143
0 589 1310
0 659 1418
0 700 1511
0 726 1570
0 745 1612
0 784 1687
0 858 1761
38 155 104
44 157 139
56 169 188
36 185 263
45 205 355
0 239 476
66 309 626
35 396 818
76 493 1010
0 575 1203
0 646 1372
0 705 1509
0 748 1606
0 777 1669
0 801 1716
0 861 1764
0 920 1869
43 224 141
39 229 173
104 235 219
62 254 289
69 273 382
0 305 513
58 373 684
0 464 892
0 555 1091
0 640 1284
0 718 1458
0 781 1591
0 827 1688
0 860 1754
0 887 1806
0 942 1846
0 994 1933
94 316 196
95 321 217
116 324 258
131 336 322
90 362 420
20 397 555
32 463 747
0 556 972
0 644 1180
0 726 1392
0 811 1570
0 874 1698
0 920 1791
0 957 1862
0 984 1913
0 1020 1973
0 1079 2016
106 429 249
90 441 269
93 452 311
126 463 378
119 486 474
0 535 627
0 603 834
0 686 1072
0 783 1304
0 877 1517
0 953 1704
0 1015 1828
0 1059 1916
0 1080 2005
0 1115 2019
0 1151 2077
0 1200 2152
67 592 314
0 608 334
53 624 380
68 642 449
53 667 552
44 718 718
0 789 933
0 872 1175
0 975 1436
0 1070 1659
0 1136 1851
0 1191 1997
0 1235 2085
0 1262 2138
0 1285 2179
0 1321 2233
0 1378 2273
75 811 402
96 826 421
0 847 462
0 869 538
0 901 648
29 947 813
42 1016 1039
0 1108 1301
0 1208 1563
0 1293 1801
0 1360 1990
0 1418 2153
0 1459 2263
0 1486 2315
0 1512 2359
0 1543 2403
0 1576 2444
116 1068 489
0 1096 506
0 1114 555
0 1136 633
0 1173 749
0 1219 921
0 1287 1162
0 1381 1441
0 1476 1711
0 1563 1953
0 1639 2157
0 1702 2316
0 1743 2436
0 1763 2485
0 1774 2531
0 1795 2560
0 1829 2577
0 1319 555
84 1348 592
0 1373 636
0 1394 717
124 1430 844
135 1481 1029
0 1553 1280
0 1646 1568
0 1743 1851
0 1835 2107
0 1914 2318
0 1974 2476
0 2014 2585
152 2033 2646
0 2037 2677
0 2048 2694
0 2071 2721
0 1523 608
0 1552 651
0 1579 698
136 1600 789
159 1635 923
0 1692 1114
34 1767 1373
0 1860 1669
0 1963 1965
0 2058 2226
75 2132 2437
0 2186 2596
146 2224 2703
0 2248 2775
0 2259 2803
0 2264 2826
0 2269 2837
0 1660 657
159 1679 699
96 1707 750
0 1738 833
180 1767 974
34 1816 1176
0 1892 1443
0 1994 1744
0 2101 2044
0 2197 2308
0 2273 2521
0 2326 2678
86 2363 2782
0 2387 2850
177 2391 2876
0 2396 2899
0 2409 2913
88 1744 687
221 1762 730
83 1790 786
0 1822 877
0 1851 1026
0 1902 1239
0 1979 1517
0 2084 1822
0 2187 2115
106 2279 2372
0 2359 2585
0 2410 2739
0 2444 2837
0 2465 2894
0 2469 2925
0 2474 2940
0 2490 2956
162 1790 703
229 1816 752
0 1845 814
0 1868 929
169 1902 1099
0 1970 1323
0 2056 1607
0 2153 1909
0 2247 2190
0 2336 2436
162 2411 2635
111 2456 2780
0 2483 2875
166 2506 2923
0 2524 2959
0 2530 2974
185 2528 2979
174 1830 718
152 1848 770
183 1870 856
0 1905 977
0 1949 1160
188 2015 1416
0 2103 1701
0 2193 1987
0 2284 2253
107 2373 2490
0 2450 2687
0 2490 2816
0 2514 2897
0 2538 2951
157 2556 2981
0 2565 3003
0 2566 3010
0 1950 722
0 1958 820
0 1982 949
0 2023 1121
0 2078 1330
0 2143 1587
78 2222 1859
0 2307 2126
0 2394 2380
0 2475 2605
0 2539 2784
0 2578 2904
138 2604 2977
0 2626 3027
0 2636 3057
0 2644 3071
0 2655 3085
0 2139 732
0 2152 902
235 2175 1105
0 2228 1326
0 2287 1578
43 2351 1826
0 2425 2075
0 2509 2331
0 2590 2576
0 2649 2779
0 2689 2931
0 2728 3044
0 2759 3118
0 2775 3161
174 2777 3176
0 2782 3193
0 2793 3207
50 17 40
84 53 92
77 62 161
64 89 225
49 111 317
24 156 437
0 212 607
45 322 757
34 411 939
0 478 1139
0 567 1265
0 612 1386
0 646 1473
0 670 1531
0 684 1568
0 712 1630
0 777 1685
87 100 72
87 106 116
85 112 174
69 118 256
0 119 367
0 175 464
0 242 616
0 335 795
0 432 995
39 530 1164
0 593 1326
0 642 1452
0 683 1551
0 734 1594
0 755 1639
0 791 1707
0 842 1803
95 160 103
100 168 136
92 175 196
59 182 277
0 189 383
37 231 489
0 298 652
0 387 851
0 487 1047
61 579 1219
0 647 1382
0 705 1514
0 750 1617
0 784 1689
0 808 1737
0 865 1778
0 920 1875
87 236 134
97 243 159
97 246 220
0 257 299
61 277 394
23 306 532
0 371 710
0 463 927
0 553 1134
0 645 1302
0 719 1468
0 784 1606
0 831 1703
0 861 1764
0 889 1817
0 930 1890
0 998 1948
88 325 184
88 329 204
97 331 251
134 343 324
94 378 432
0 407 579
0 464 768
0 556 999
0 656 1207
0 737 1420
0 817 1589
0 883 1721
0 927 1811
0 958 1870
0 991 1932
0 1033 2004
0 1092 2049
100 438 242
102 450 265
95 459 306
123 471 378
115 504 485
0 546 642
0 608 853
0 696 1091
0 788 1320
0 882 1532
0 963 1727
0 1024 1849
0 1056 1962
0 1089 2028
0 1115 2077
0 1166 2111
0 1218 2191
0 608 307
0 623 333
81 640 381
53 660 450
46 685 557
42 732 726
0 803 950
0 889 1201
0 975 1446
0 1065 1683
0 1152 1879
0 1203 2021
0 1246 2109
0 1282 2176
0 1292 2241
0 1335 2264
0 1388 2338
92 832 397
100 848 419
0 876 465
88 900 543
86 923 651
0 970 826
0 1044 1064
0 1132 1328
0 1220 1581
0 1308 1825
0 1388 2030
0 1441 2190
0 1479 2298
0 1514 2361
0 1539 2403
0 1567 2442
0 1600 2483
63 1096 482
0 1132 501
0 1155 554
0 1176 637
89 1209 756
0 1257 933
0 1327 1184
0 1422 1472
0 1510 1740
0 1595 1989
0 1675 2202
0 1731 2356
0 1768 2475
0 1799 2534
0 1813 2584
0 1830 2609
0 1856 2618
162 1354 561
0 1395 584
0 1422 630
0 1442 717
138 1474 851
0 1526 1035
0 1601 1299
0 1696 1604
0 1789 1885
0 1876 2139
0 1955 2360
0 2009 2518
0 2049 2628
0 2075 2694
0 2081 2729
0 2089 2747
0 2111 2773
172 1574 616
0 1607 638
0 1635 690
138 1655 789
0 1686 916
140 1738 1123
0 1822 1396
0 1913 1705
0 2013 1996
0 2105 2256
0 2178 2478
0 2234 2645
0 2274 2754
0 2295 2816
0 2303 2851
144 2311 2871
159 2327 2891
0 1725 639
125 1748 687
0 1774 742
0 1802 833
171 1831 985
172 1884 1196
0 1965 1474
0 2061 1787
0 2161 2081
94 2255 2347
124 2334 2571
135 2390 2733
0 2425 2841
0 2442 2899
0 2450 2935
95 2461 2956
79 2477 2975
120 1821 669
0 1853 692
90 1867 779
0 1895 878
106 1930 1041
0 1986 1265
135 2063 1554
0 2163 1866
0 2259 2160
0 2350 2424
0 2435 2647
0 2485 2801
0 2514 2896
186 2532 2954
0 2541 2989
0 2553 3016
184 2570 3028
237 1892 690
0 1919 712
0 1932 807
85 1953 933
127 1992 1101
168 2056 1348
152 2142 1646
0 2239 1954
0 2331 2239
0 2418 2493
110 2495 2702
132 2538 2846
0 2567 2943
0 2592 3002
0 2603 3030
183 2612 3047
187 2625 3063
0 1962 670
0 1972 728
0 1988 833
198 2011 991
0 2059 1175
0 2124 1445
0 2208 1751
0 2306 2053
0 2400 2327
0 2483 2568
186 2546 2762
0 2592 2902
0 2620 2988
0 2638 3038
0 2655 3075
0 2665 3092
0 2667 3100
17 2100 643
245 2107 769
247 2126 927
0 2168 1116
126 2213 1359
0 2277 1627
0 2355 1919
0 2446 2210
0 2535 2474
0 2607 2701
118 2659 2879
199 2704 3008
0 2730 3087
0 2739 3129
0 2757 3164
0 2767 3181
0 2762 3185
0 2323 516
153 2335 790
0 2359 1037
224 2392 1319
0 2454 1595
0 2517 1863
0 2586 2136
0 2662 2417
0 2735 2673
0 2793 2885
55 2836 3045
0 2873 3161
0 2896 3235
0 2905 3274
0 2915 3297
180 2922 3311
0 2924 3323
134 45 32
143 73 95
144 87 165
136 87 248
118 83 347
89 0 507
67 174 654
0 239 859
0 375 1009
0 481 1164
0 549 1325
82 618 1413
53 651 1499
0 675 1557
0 692 1598
0 720 1662
0 763 1747
146 103 70
148 116 117
150 128 179
146 134 260
122 129 370
81 100 528
0 168 700
0 299 866
69 433 1018
0 508 1223
0 599 1355
0 649 1483
0 689 1581
0 720 1655
0 744 1704
0 800 1740
0 847 1829
159 170 102
159 178 136
158 185 197
149 191 280
121 196 394
32 187 563
0 240 746
0 360 921
0 467 1108
0 570 1269
0 637 1441
0 712 1545
0 758 1647
0 792 1718
0 817 1767
0 855 1839
0 927 1904
163 249 134
164 255 160
156 261 219
136 270 306
89 285 427
0 299 586
0 358 765
0 456 969
0 559 1165
0 641 1361
0 713 1527
0 776 1666
0 823 1765
0 853 1827
0 896 1844
0 938 1919
0 993 2017
132 344 166
133 352 192
114 361 247
110 374 335
0 398 457
63 419 611
0 464 815
0 555 1037
0 658 1260
0 749 1458
0 812 1647
0 880 1786
0 926 1881
0 954 1937
0 1001 1964
0 1045 2041
0 1095 2129
0 478 199
0 485 235
0 494 292
96 505 380
103 531 498
0 565 665
0 622 881
0 705 1133
0 797 1374
0 889 1590
0 975 1760
0 1027 1914
0 1073 2008
0 1107 2074
0 1131 2120
0 1169 2185
0 1235 2238
79 648 287
78 659 317
41 677 370
0 696 449
53 716 565
0 762 746
0 830 982
0 908 1242
0 993 1496
0 1087 1725
0 1173 1921
0 1225 2070
0 1261 2188
0 1296 2255
0 1314 2290
0 1346 2341
0 1411 2387
0 882 371
0 901 398
42 926 459
0 948 539
59 963 653
0 1014 848
41 1088 1097
0 1162 1363
67 1249 1623
0 1342 1877
0 1425 2086
0 1480 2253
0 1516 2360
0 1543 2413
0 1566 2453
0 1598 2498
0 1639 2547
0 1161 459
150 1189 493
0 1220 540
15 1239 633
0 1266 755
0 1317 956
0 1391 1223
0 1474 1515
0 1562 1792
0 1652 2046
0 1732 2270
0 1780 2421
0 1812 2536
0 1842 2594
0 1861 2650
0 1880 2678
0 1905 2684
0 1437 530
0 1471 549
116 1491 621
186 1512 718
133 1545 853
0 1598 1053
93 1675 1338
0 1771 1657
0 1864 1943
0 1951 2202
0 2026 2428
0 2070 2587
0 2102 2691
0 2132 2763
150 2146 2794
0 2155 2825
0 2170 2845
0 1667 573
98 1685 620
0 1711 675
0 1739 768
190 1766 924
158 1820 1136
136 1901 1431
0 2002 1760
0 2100 2056
0 2186 2320
0 2258 2548
0 2309 2714
0 2344 2827
0 2362 2887
0 2371 2925
0 2384 2949
0 2404 2973
0 1813 616
0 1847 636
230 1865 729
186 1893 828
135 1927 982
170 1981 1215
0 2062 1511
29 2155 1836
0 2252 2139
0 2342 2411
100 2418 2639
205 2472 2803
0 2504 2912
0 2520 2976
54 2530 3007
0 2546 3040
0 2565 3063
244 1919 644
0 1958 666
0 1983 737
178 1997 874
0 2034 1039
0 2091 1286
0 2169 1590
0 2261 1913
0 2354 2216
0 2445 2489
153 2523 2714
0 2576 2875
0 2603 2973
0 2620 3036
132 2633 3069
0 2650 3100
0 2666 3119
0 2019 620
248 2037 684
0 2056 761
0 2069 910
189 2104 1102
0 2168 1362
0 2249 1681
0 2347 2007
0 2438 2303
0 2522 2564
0 2595 2782
0 2643 2933
188 2670 3026
0 2686 3084
102 2700 3116
209 2714 3137
194 2729 3153
0 2104 575
0 2109 653
0 2121 783
0 2148 952
0 2186 1182
0 2248 1477
0 2333 1801
0 2430 2119
0 2524 2406
0 2601 2654
0 2659 2852
0 2707 2999
0 2736 3089
0 2749 3135
0 2761 3167
0 2771 3186
0 2779 3197
237 2254 483
0 2267 618
0 2282 844
241 2309 1099
176 2355 1362
62 2419 1662
0 2498 1976
0 2584 2281
0 2669 2561
0 2736 2794
0 2781 2975
115 2823 3107
0 2851 3192
0 2860 3233
0 2871 3263
0 2878 3278
0 2879 3285
367 2493 0
0 2539 359
0 2544 895
0 2562 1271
224 2602 1595
0 2666 1887
94 2732 2186
0 2802 2483
0 2871 2755
0 2927 2978
0 2964 3142
0 2996 3258
0 3017 3334
0 3023 3374
0 3034 3399
196 3040 3413
0 3039 3423
212 92 38
218 97 94
222 110 166
218 116 249
206 98 361
195 0 528
184 0 724
154 0 962
63 106 1185
0 412 1280
133 551 1363
98 600 1488
55 633 1577
0 654 1637
0 667 1687
0 687 1763
110 770 1789
226 126 70
230 137 115
234 150 183
233 157 267
223 151 380
208 120 549
192 0 782
160 0 1037
0 227 1220
0 426 1348
98 581 1434
0 634 1573
0 667 1676
0 686 1748
100 751 1744
0 788 1821
